X: 1
T: Currants For Cakes And Raisins For Everything
M: 6/8
L: 1/8
R: jig
K: Ddor
A|:ded cec|ded AFA|DFA dAF|GEE Ez G|
FDF AFA|daf {a}gfe|dAF BAG|1 FDA D2A:|2 FDA D2B||
|:EFG AAG|FDF AFD|EFG Az G| E=cE GFE|
FDF AFA|daf gfe|dAF BAG|1 FDA D2A:|2 FDA D3||
